X:507
T:Mrs Felton's Maggot
C:Colin Hume, 2006
S:Colin Hume's website,  colinhume.com  - chords can also be printed below the stave.
Q:1/2=90
M:3/2
L:1/4
V:1
H:For Liz Felton
%%MIDI program 2
%%MIDI beat 100 95 80
K:C
P:A
V:1
[| c2 TB2 {AB}c2 | A3/G/ F/G/ AGc | F3/E/ D/E/ FEc | BA B3/c/ d2 |
c2 TB2 {AB}c2 | A3/G/ F/G/ AGc | F3/E/ D/E/ FEc | BA B3/c/ c2 |
V:2 bass octave=-2
%%MIDI program 2
%%MIDI gchord ccc
K:C
[| "C"c'2 "G"b2 "Am"ag | "F"f4 "C"e2 |\
"Dm"d4 "C"ce | "G"g2 "D7"^f2 "G"g G |
"C"c'2 "G"b2 "Am"ag | "F"f4 "C"e2 |\
"Dm"d4 "C"ce | "G"g2 "G7"G2 "C"c2 |
V:1
P:B
d3/c/ B/c/d e B | c3/B/ A/B/c d2 | c2 Td2 {cd}ec | Ad c3/B/ c2 |
d3/c/ B/c/d e B | e3/d/ c/d/e gd |\
g3/f/ e/f/g a g/f/ | ec/d/ B3/c/ c2 |]
V:2
"G"g4 "E7"^g2 | "Am"ag "D7"^fd "G"g=f |\
"C"e2 "G"d2 "C"ce | "F"f2 "G7"gG "C"c/d/e/f/ |
"G"g4 "E7"^g2 | "Am"a4 "G"b2 |\
"C7"c'2 c/d/e "F"f2 | "C"g2 "G7"G2 "C"c2 |]

